X: 11262
T: Dusty Windowsills
R: jig
M: 6/8
K: Adorian
|:A2B cBA|e2d cBA|~G3 EGG|DGG EGG|
A2B cBA|e2d efg|age dBG|1 BAG A2B:|2 BAG A3||
|:eaa age|def ~g3|gag gfe|dBA ~G3|
EGG DGG|EGG ABc|Bed BAG|B2G A3:|
|:~A3 gAf|~A3 edB|~G3 eGd|~G3 edB|
~A3 gAf|~A3 efg|age dBG|1 BAG A3:|2 BAG A2B||

